X:168
T:Burnt Tattie, The
C:Joe Buchanan's Scottish Tome - Page 265.1
I:265 1
Z:Carl Allison
C:Ian Ettles
R:Jig
L:1/8
M:6/8
K:G
d |: d^cd edc | dBG D2 B | B^AB c2 B | A3 E3 | 
A2 B A2 G | F2 A d3 |1 d^cd ed=c | B3 d2 :|2 d^cd e=cA | G3 G2 |] 
D |: B2 D B2 D | B3 B2 A | GAB dcB | c3 c2 c | 
ced cBA | GFE D2 d |1 d^cd ed=c | B3 D2 :|2 d^cd e=cA | G3 G2 |] 

